X: 1947
T: Uncle Jim's
B: australian traditional tunes wiki
M:6/8
L:1/8
R: Jig
Q: 3/8=100
K:G
V:1 
d3|:"D7"e2d "G"B2d|G3A2G|"D7"F2Ac2A|F3-F2d|dBdf2e|
d2B cAF|1"G"G2F G2B|"D7"d3d3:|2"G"G3"D"D3|"G"G3-G2A||
|:"G"B2B BBB|B2BB3|"D7"A2Bc2d|f3e3|d2ef2e|
d2B cAF|1"G"G2FG2B|"D7"d3c3:|2"G"GAB "D7"def|"G"g3||
% abcbook-tune_id 6342d5beeda654c3d2bea8be


% abcbook-boost 0
% abcbook-tablature 
% abcbook-transpose 
% abcbook-lastupdated 1665324489592
% abcbook-soundfonts 
% abcbook-repeats 1
% NFF Book 2009

